X: 13904
T: Fox's Sleep, The
R: barndance
M: 4/4
K: Gmajor
.d|g2 (g>f) (fed).B|(d2 ef).g2 (g>f)|(fed).B {d}(cB)(A>G)|
G4 z2.d2|.g2 (g>f) (fed>).B|(d2 {ed=cd} e>)f {f}g2 (g>f)|
(edB>)G (dcA>).B|G4 z2d2|g2 (f>g) {f}e3 (f/g/)|
(a>ga>).b .d3 .d|{a}(g>fg>).a (ba){a}(gf)|{a}g2 z2z2 d2 {ed=cd}|
(g3f) (fe) z.d|(dB)(de) {e}!dcrmftf!g2 (g>f)|(ed)(B>A) (c>B){B}(A>G)|G6||

